!!!COM: Palestrina, Giovanni Perluigi da
!!!OPR: Missa In duplicibus minoribus (II)
!!!OMD: Credo
!!!OTL: First Section
**kern	**kern	**kern	**kern	**kern
*Ibass	*Itenor	*Itenor	*Icalto	*Icant
!Bassus	!Tenor 2	!Tenor 1	!Altus	!Cantus
*clefF4	*clefGv2	*clefGv2	*clefG2	*clefG2
*k[]	*k[]	*k[]	*k[]	*k[]
*E:phr	*E:phr	*E:phr	*E:phr	*E:phr
*M4/2	*M4/2	*M4/2	*M4/2	*M4/2
=1	=1	=1	=1	=1
0r	0r	0r	1A	1r
.	.	.	2c	1e
.	.	.	2c	.
=2	=2	=2	=2	=2
0r	0r	0r	1B	2g
.	.	.	.	2g
.	.	.	2A	1a
.	.	.	2d	.
=3	=3	=3	=3	=3
0r	1r	0r	4c	2e
.	.	.	4A	.
.	.	.	4c	2a
.	.	.	4d	.
.	1E	.	[1e	4g
.	.	.	.	4e
.	.	.	.	4g
.	.	.	.	4a
=4	=4	=4	=4	=4
0r	2G	0r	2e]	4b
.	.	.	.	4cc
.	2G	.	2d	2.b
.	1A	.	2c	.
.	.	.	.	4a
.	.	.	4B	[2a
.	.	.	4A	.
=5	=5	=5	=5	=5
1r	1E	0r	1B	2a]
.	.	.	.	2g
1AA	1A	.	[1c	2e
.	.	.	.	[2f
=6	=6	=6	=6	=6
2C	1G	1r	1c]	4f]
.	.	.	.	4e
2C	.	.	.	1e
1D	1F	1A	2r	.
.	.	.	2A	2d
=7	=7	=7	=7	=7
2AA	1E	2c	2A	1e
2C	.	2c	2A	.
1BB	1D	1d	4G#	2r
.	.	.	2A	.
.	.	.	.	2b
.	.	.	4G#	.
=8	=8	=8	=8	=8
0AA	[0E	2c	2A	2.cc
.	.	2A	2e	.
.	.	.	.	4b
.	.	1c	1e	1a
=9	=9	=9	=9	=9
2r	1E]	1B	2e	1g#
1E	.	.	2B	.
.	1r	2G	2c	1r
2F	.	2A	2d	.
=10	=10	=10	=10	=10
2G	0r	2B	2d	0r
2G	.	2B	2.e	.
1A	.	1c	.	.
.	.	.	4c	.
.	.	.	2f	.
=11	=11	=11	=11	=11
2G	0r	2B	2e	1r
2F	.	2A	2d	.
1E	.	4G#	[1e	1b
.	.	2A	.	.
.	.	4G#	.	.
=12	=12	=12	=12	=12
0r	2r	1A	2e]	2.cc
.	2A	.	2e	.
.	.	.	.	4b
.	1d	1r	1f	4a
.	.	.	.	4g#
.	.	.	.	[2a
=13	=13	=13	=13	=13
0r	2c	0r	2e	2a]
.	2B	.	2d	2g#
.	4c	.	2e	1a
.	4A	.	.	.
.	[2d	.	[2f	.
=14	=14	=14	=14	=14
0r	2d]	0r	2f]	2b
.	2c	.	1e	1a
.	[1B	.	.	.
.	.	.	2d	4g#
.	.	.	.	4f#
=15	=15	=15	=15	=15
1E	1B]	2r	2e	2g#
.	.	2B	1e	2g#
1A	1r	1c	.	1a
.	.	.	2f	.
=16	=16	=16	=16	=16
2G	0r	2B	2e	0r
2F	.	2A	2d	.
4G	.	2B	2e	.
4E	.	.	.	.
[2A	.	[2c	[2f	.
=17	=17	=17	=17	=17
2A]	1E	2c]	2f]	0r
2G	.	1B	1e	.
2F	1A	.	.	.
2F	.	2A	2d	.
=18	=18	=18	=18	=18
1E	1G#	1B	[0e	1b
1AA	1A	2r	.	1cc
.	.	2A	.	.
=19	=19	=19	=19	=19
2r	2B	2G#	1e_	2b
2A	2c	2A	.	2a
2G#	2B	2E	1e_	2b
2A	[2A	[2e	.	[2cc
=20	=20	=20	=20	=20
1E	2A]	2e]	0e]	2cc]
.	2G#	2B	.	1b
2AA	1A	1c	.	.
2AA	.	.	.	2a
=21	=21	=21	=21	=21
[0E	[0G#	[0B	[0e	[0b
=22	=22	=22	=22	=22
0E]	0G#]	0B]	0e]	0b]
*-	*-	*-	*-	*-
!!!CDT: 1525/^1526/-1594/2/2
!!!OCY: Italia
!!!AGN: Mass (Paraphrase)
!!!AST: renaissance, vocal
!!!ASW: Gregorian Mass
!!!PWK: Masses, Book Mantuan I
!!!RNB: Cadence finals: A
!!!YOR: Le Opere Complete, v. 18, p. 1
!!!YOO: Rome, Italy: Fratelli Scalera
!!!END: 1992//
!!!EED: John Miller
!!!YEC: Copyright 2000, John Miller
!!!YEN: United States of America
!!!YEM: Rights to all derivative electronic formats reserved.
!!!YEM: Refer to licensing agreement for further details.
!!!YEM: This file must be accompanied by the licensing agreement.
!!!YEM: A copy of the licensing agreement may be found at http://www.music-cog.ohio-state.edu/HumdrumDatabases/Palestrina/license.txt
!!!EMD: converted to Humdrum by Bret Aarden
